packages/icons/src/svg/mdm-colored.svg

<svg xmlns="http://www.w3.org/2000/svg" viewBox="0 0 16 16">
  <g fill="none" fill-rule="evenodd">
    <path fill="#5599D8" d="M15.9736667,8 C15.9736667,12.4037333 12.4038,15.9737333 7.99993333,15.9737333 C3.5962,15.9737333 0.0263333333,12.4037333 0.0263333333,8 C0.0263333333,3.59626667 3.5962,0.0262666667 7.99993333,0.0262666667 C12.4038,0.0262666667 15.9736667,3.59626667 15.9736667,8"/>
    <path fill="#FFF" d="M13.4788667,7.78412 L10.9424667,7.79305333 C10.9422,6.81758667 10.9420667,5.89438667 10.9420667,5.89372 C10.9420667,5.14798667 9.7454,4.53878667 8.23126667,4.48758667 L8.23126667,2.49212 C8.44873333,2.43412 8.63046667,2.29292 8.74193333,2.10345333 C11.4382,2.42812 13.583,4.56612 13.9183333,7.25918667 C13.7058,7.36358667 13.5454,7.55305333 13.4788667,7.78412 Z M8.74726667,13.8890533 C8.63686667,13.6955867 8.45406667,13.5511867 8.2342,13.49172 L8.2342,11.45172 C9.74766667,11.3999867 10.943,10.79092 10.943,10.04532 C10.943,10.04452 10.9427333,9.17185333 10.9426,8.22718667 L13.4687333,8.21825333 C13.5283333,8.46252 13.6932667,8.66318667 13.9134,8.77305333 C13.5624667,11.4459867 11.4279333,13.5638533 8.74726667,13.8890533 Z M5.64273333,10.2479867 L5.64273333,9.42585333 C6.16873333,9.78292 7.04366667,10.0171867 8.03593333,10.0171867 C9.0134,10.0171867 9.87633333,9.78945333 10.4046,9.44132 L10.4046,10.26332 C9.87633333,10.6114533 9.0134,10.8391867 8.03593333,10.8391867 C7.04366667,10.8391867 6.16873333,10.60492 5.64273333,10.2479867 Z M7.8002,13.4895867 C7.5786,13.5475867 7.3942,13.6919867 7.28246667,13.88572 C4.61046667,13.5491867 2.487,11.4314533 2.14153333,8.76225333 C2.34833333,8.65198667 2.50326667,8.46038667 2.56313333,8.22825333 L5.11113333,8.22825333 L5.1102,10.0498533 L5.11086667,10.0498533 C5.11566667,10.7902533 6.29886667,11.39532 7.8002,11.45132 L7.8002,13.4895867 Z M7.28766667,2.10678667 C7.39953333,2.29492 7.5806,2.43465333 7.79713333,2.49225333 L7.79713333,4.48812 C6.3046,4.54452 5.12806667,5.14372 5.11206667,5.87878667 L5.11126667,7.79425333 L2.55926667,7.79425333 C2.4966,7.56585333 2.3422,7.37798667 2.1366,7.27012 C2.46633333,4.58078667 4.6002,2.44278667 7.28766667,2.10678667 Z M10.4046,8.04638667 L10.4046,8.86838667 C9.87633333,9.21652 9.0134,9.44425333 8.03593333,9.44425333 C7.04366667,9.44425333 6.16873333,9.20998667 5.64273333,8.85305333 L5.64273333,8.03105333 C6.16873333,8.38798667 7.04366667,8.62225333 8.03593333,8.62225333 C9.0134,8.62225333 9.87633333,8.39452 10.4046,8.04638667 Z M8.03593333,7.22732 C9.0134,7.22732 9.87633333,6.99958667 10.4046,6.65145333 L10.4046,7.47345333 C9.87633333,7.82158667 9.0134,8.04932 8.03593333,8.04932 C7.04366667,8.04932 6.16873333,7.81505333 5.64273333,7.45812 L5.64273333,6.63612 C6.16873333,6.99305333 7.04366667,7.22732 8.03593333,7.22732 Z M14.4560667,7.18692 C14.091,4.26012 11.7756667,1.94105333 8.8506,1.57025333 C8.79793333,1.15292 8.44553333,0.82892 8.01393333,0.82892 C7.581,0.82892 7.22793333,1.15465333 7.17686667,1.57385333 C4.2662,1.95598667 1.96513333,4.26865333 1.60033333,7.18478667 C1.2018,7.25372 0.897933333,7.59918667 0.897933333,8.01745333 C0.897933333,8.43772 1.20446667,8.78398667 1.60566667,8.85078667 C1.9874,11.7474533 4.28086667,14.0395867 7.17793333,14.4194533 C7.23366667,14.8334533 7.5846,15.1538533 8.01393333,15.1538533 C8.44193333,15.1538533 8.79233333,14.8354533 8.84953333,14.4230533 C11.7608667,14.05452 14.0686,11.75572 14.4507333,8.84865333 C14.8415333,8.77332 15.137,8.43038667 15.137,8.01745333 C15.137,7.60652 14.8443333,7.26438667 14.4560667,7.18692 Z"/>
  </g>
</svg>

<svg xmlns="http://www.w3.org/2000/svg" viewBox="0 0 16 16">
	<g fill="none" fill-rule="evenodd">
		<path fill="#5599D8" d="M15.974 8A7.974 7.974 0 1 1 .026 8a7.974 7.974 0 0 1 15.948 0"/>
		<path fill="#FFF" d="M13.479 7.784l-2.537.01v-1.9c0-.746-1.197-1.355-2.71-1.406V2.492a.849.849 0 0 0 .51-.389 5.947 5.947 0 0 1 5.176 5.156.845.845 0 0 0-.44.525zM8.747 13.89a.844.844 0 0 0-.513-.397v-2.04c1.514-.052 2.709-.661 2.709-1.407V8.227l2.526-.009c.06.245.224.445.444.555a5.948 5.948 0 0 1-5.166 5.116zm-3.104-3.641v-.822c.526.357 1.4.591 2.393.591.977 0 1.84-.228 2.369-.576v.822c-.529.348-1.392.576-2.37.576-.991 0-1.866-.234-2.392-.591zM7.8 13.49a.844.844 0 0 0-.518.396 5.948 5.948 0 0 1-5.14-5.124.844.844 0 0 0 .421-.534h2.548v1.822c.005.74 1.188 1.345 2.69 1.401v2.039zM7.288 2.107a.845.845 0 0 0 .51.385v1.996c-1.493.057-2.67.656-2.686 1.39v1.916H2.558a.843.843 0 0 0-.422-.524 5.947 5.947 0 0 1 5.15-5.163zm3.117 5.94v.821c-.529.349-1.392.576-2.37.576-.991 0-1.866-.234-2.392-.59V8.03c.526.357 1.4.591 2.393.591.977 0 1.84-.227 2.369-.576zm-2.37-.82c.978 0 1.841-.227 2.37-.576v.822c-.529.349-1.392.576-2.37.576-.991 0-1.866-.234-2.392-.59v-.823c.526.357 1.4.591 2.393.591zm6.421-.04A6.48 6.48 0 0 0 8.851 1.57a.845.845 0 0 0-.837-.74.844.844 0 0 0-.837.745A6.48 6.48 0 0 0 1.6 7.184a.846.846 0 0 0 .006 1.667 6.48 6.48 0 0 0 5.572 5.568.845.845 0 0 0 .836.735.845.845 0 0 0 .836-.73 6.48 6.48 0 0 0 5.6-5.575.847.847 0 0 0 .006-1.662z"/>
	</g>
</svg>
